X:266
T:Reverand Brothers
M:6/8
L:1/8
R:Jig
K:ADor
E|A3/2B/2A c3|d3 ecA|A3/2B/2A cde|dcA G3|A3/2B/2A c3|d3 ecA|a3 ged|cA^G
A3:|:
B/2^c/2d|eaa aba|gef g3|eaa aba|ged|cAA|a3 aba|gef gfg|a3 ged|cA^G A3:|"
A M. 2"d3 e=fe||
